!!!OTL: Maque dashi
!!!ARE: Asia, China,ÿHebei, Jiaohe
!! IV, 88
!!!SCT: C1645
!!!YEM: Copyright 1995, estate of Helmut Schaffrath.
**kern
*ICvox
*Ivox
*M2/4
*k[f#c#]
*D:
{8dd
8dd
16ee
16dd
8b
=1
8a
16dd
16b
16b
16a
8f#
=2
8.a
16b
8a
8d
=3
8.e
16f#
4a}
=4
{8B
4d
8e
=5
8.f#
16e
4f#
=6
8a
16dd
16b
8a
8f#
=7
8.e
16f#
4a}
=8
{8.f#
16a
8b
8b
=9
8dd
8a
4b
=10
8dd
8b
4r}
=11
{8dd
8a
16b
16a
16f#
16e
=12
2a
=13
8dd
8a
16b
16a
16f#
16e
=14
2a}
=15
{8.f#
16a
8b
8b
=16
8.f#
16a
8b
8b}
=17
{8.f#
16a
8f#
8a
=18
8f#
8a
8b
8b}
=19
{8dd
8dd
16ee
16dd
8b
=20
8a
16dd
16b
8a
8f#
=21
8.a
16b
8a
8d
=22
8.e
16f#
4a}
=23
{8B
4d
8e
=24
8.f#
16e
4f#
=25
8a
8b
8a
8f#
=26
8.e
16f#
4a}
==
!!!AGN: Wuge, Bawangbian
!!!AMT: simple duple
!!!AIN: vox
!!!EED: Helmut Schaffrath
!!!EEV: 1.0
*-
